X:168
T:Champagne Polka. Le4.168
Q:1/4=100
L:1/8
B:L.Leadley MS#4 c1850
Z:vmp.Mike Hicken 2016 www.village-music-project.org.uk
N: Tune 104 in "The Fiddler of Helperby"
N: Helperby shows more staccato notes than this but they are not clearly show in the scan.
M:2/4
K:Bb
!p!d'fbd|dc (c/=B/)c|.g.c.e.A|cB (B/A/).B|.d'.f.b.d|.d.c (c/=B/).c|.g.c.e.A|B!f!z [DBb]z :|
|:!f!(d/c/B/A/) GG|gg !>!e2|(d/e/d/c/) .B.A|(c/B/A/B/) .G.D|
(d/c/B/A/) .G.G|gg !>!e2|(d/e/d/c/) (B/A/G/^F/)|Gz !f! [DBg]z :|
|:!p! d'fbd|.d.c (c/=B/).c|.g.c.e.A|.c.B (B/A/).B|
.d'.f.b.f|.d.c (c/=B/).c|.b.c.e.A|Bz [DBb]z !fermata!"_Fine":|
K:Eb
"^Trio"  !p!(G/A/B/c/) .B.B|.e.e G2|!f!.c.B, .B.B,|.G.B, E2|
!p! (G/A/B/c/) .B.B|.e.e G2|!f! cB, B.B,|GB, E2 :|
|:!f!.e(d/e/) (f/e/d/c/)|Bb !>!c'>b|aa !>!b>a|gg !>!a>g|
e(d/e/) (f/e/d/c/)|Bb !>!c'>b|ff !>!g>f|eeez:|
|: !p!(G/A/B/c/) .B.B|.e.e G2|!f!.c.B, .B.B,|.G.B, E2|
!p!(G/A/B/c/).B.B|.e.eG2|!f!.c.B, .B.B,|GB, E2 "_D.C.":|

